svgs/sharp-solid/trash-can.svg

<svg xmlns="http://www.w3.org/2000/svg" viewBox="0 0 448 512"><!--! Font Awesome Pro 6.6.0 by @fontawesome - https://fontawesome.com License - https://fontawesome.com/license (Commercial License) Copyright 2024 Fonticons, Inc. --><path d="M144 0L304 0l16 32 128 0 0 64L0 96 0 32l128 0L144 0zM32 128l384 0 0 384L32 512l0-384zm112 64l-32 0 0 16 0 224 0 16 32 0 0-16 0-224 0-16zm96 0l-32 0 0 16 0 224 0 16 32 0 0-16 0-224 0-16zm96 0l-32 0 0 16 0 224 0 16 32 0 0-16 0-224 0-16z"/></svg>

<svg xmlns="http://www.w3.org/2000/svg" viewBox="0 0 448 512"><!--! Font Awesome Pro 6.4.2 by @fontawesome - https://fontawesome.com License - https://fontawesome.com/license (Commercial License) Copyright 2023 Fonticons, Inc. --><path d="M144 0H304l16 32H448V96H0V32H128L144 0zM32 128H416V512H32V128zm112 64H112v16V432v16h32V432 208 192zm96 0H208v16V432v16h32V432 208 192zm96 0H304v16V432v16h32V432 208 192z"/></svg>
